!!!OTL: ICH WILL EUCH ERZAEHLEN
!!!ARE: Europa, Mitteleuropa, Deutschland, Pommern, Stralsund; Greifswald
!!!SCT: E1105
!!!YEM: Copyright 1995, estate of Helmut Schaffrath.
**kern
*ICvox
*Ivox
*M6/8
*k[f#]
*G:
{8d
=1
8d
8g
8g
8g
8b
8b
=2
8b
8a
8a
4a}
{8d
=3
8d
8a
8a
8a
8cc
8cc
=4
4cc
8b
4b}
{8b
=5
4.b
4dd
8a
=6
4.b
4a}
{8g
=7
8dd
8dd
8dd
8dd
8ee
8dd
=8
8dd
8cc
8cc
4cc}
{8dd
=9
4b
8b
8dd
8cc
8f#
=10
4.a
4g}
{8d
=11
8.b
16a
8b
4g
8d
=12
8.b
16a
8b
4g}
{8dd
=13
4b
8g
8dd
8cc
8f#
=14
4.a
4g}
==
!!!AGN: Wunsch - Lied, Luegen - Maerchen
!!!ONB: ESAC (Essen Associative Code) Database: ERK3
!!!AMT: compound duple
!!!AIN: vox
!!!EED: Helmut Schaffrath
!!!EEV: 1.0
*-
